X:1
T:Tristan und Isolde Act 3 "Bist du non tot?" (Vocal Score)
T:Tristan und Isolde Act 3 Scene 1d (Vocal Score)
T:WWV90, Richard Wagner
T:"Bist du non tot?" 
C:WWV90, Richard Wagner
%%score ( 1 2 ) 3 { ( 4 7 9 ) | ( 5 6 8 ) }
L:1/8
Q:1/4=66
M:12/8
K:D
V:1 treble-8 nm="Tristan" snm="T."
V:2 treble-8 
V:3 bass nm="Kurwenal" snm="K."
V:4 bass nm="Piano" snm="Pno."
V:7 bass 
V:9 bass 
V:5 bass 
V:6 bass 
V:8 bass 
V:1
"^Sehr mäsig" z12 | z12 | z12 |[Q:1/4=44] z12[Q:1/4=66] | z12 || %5
[M:3/4][Q:1/4=50]"^Mässig langsam" z6 | z6 | z6 | z6 | z6[Q:1/4=47][Q:1/4=42] | z6 | z6 | z6 | %13
[Q:1/4=50] z6 | z6 | z6 | z6 | z2 z2 z ^G | B2 z4 | z2 A2 ^G F | ^B2 z2 z2 | z6 | z6 | z6 | z6 | %25
 z6 | z6 ||[K:E] z6 | z6 | z6 | z6 | z!p! G G3 G | =B4 ^E z | z2 F3 F | ^B4 z2 | z6 | z6 | %37
 z2 ^A3 A | ^A4 ^B2 | (c6- | c2 G3) =G | F4 z2 | z6 | z2!pp! c3/2 E/ E2 | z2 =A2- A/ A/ A/ G/ | %45
 ^^F2 z2 z2 | z6 | z6 |[Q:1/4=64]"^Sehr ruhig" z6 | z6 | z2!pp! (G2 ^A2 | B4 c2 | B4 c d | %53
!<(! (e3 d) c B!<)! |!p! B4!pp! c2 | B4 c2 | B4 c2 | e2 d2) z2 | z6 | z2 z2 (_B2 | _B6- | %61
 B2 =G2 E2 | =c4 =B2 | =c4 =d e | (=f3 e) =d =c | =c4 =B2 | _B4 A2) | (e6-[Q:1/4=62] | %68
[Q:1/4=58] e B[Q:1/4=56] B4-[Q:1/4=48] | B2 E2) z2[Q:1/4=30] |[Q:1/4=64] z6 | z6 | z6 | %73
 z2 z2!p! A2 | A6- | A2 A2 A2 | ^B6- | B4 (^B2 |[Q:1/4=60]"^Etwas breit" e4- e d | d4 c2 | %80
 =B2 (d3 c) | =c4 D2 | B4 F2 | G4) z2 | z6 | z6 | z6 | z2!p! e4- | e4-!mp! e3/2 d/ |!mf! d6- | %90
 d2 c4 | z2 z2 z3/2!mp! ^A/ | ^A4 G z |[Q:1/4=54]"^immer breiter" z6 | z2 z2 F2 | %95
[Q:1/4=46]"^Breit" f6- | f2 =A4 ||[Q:1/4=112]"^Lebhafter" G4 z2 | z6 | z6 | z6 | z6 | z6 |] %103
V:2
 x12 | x4 x4 x"^\"Bist du non tot?\"" x x2 | x12 | x12 | x12 ||[M:3/4] x6 | x6 | x6 | x6 | x6 | %10
 x6 | x6 | x6 | x6 | x6 | x6 | x6 | x6 | x6 | x6 | x6 | x6 | x6 | x6 | x6 | x6 | x6 ||[K:E] x6 | %28
 x6 | x6 | x6 | x6 | x6 | x6 | x6 | x6 | x6 | x6 | x6 | x6 | x6 | x6 | x6 | x6 | x6 | x6 | x6 | %47
 x6 | x6 | x6 | x6 | x6 | x6 | x6 | x2 x4 | x6 | x6 | x6 | x6 | x6 | x6 | x6 | x6 | x6 | x6 | x6 | %66
 x6 | x6 | x6 | x6 | x6 | x6 | x6 | x6 | x6 | x6 | x6 | x6 | x6 | x6 | x6 | x6 | x6 | x6 | x6 | %85
 x6 | x6 | x6 | x6 | x6 | x6 | x6 | x6 | x6 | x6 | x6 | x6 || x6 | x6 | x6 | x6 | x6 | x6 |] %103
V:3
 z12 | z6 z3!pp! (3^G, F, =E, | ^D,2 z3/2 B,- B,3/2 ^E,/ E,2 | z12 | %4
 (3^G, G, ^A, B,3/2 G,/ ^D2 z3 ||[M:3/4] z6 | z6 | z6 | z6 | z6 | %10
 z3/4!pp! _A,/4 A,/ D,/ z A, z z/ =C/ |!<(! =C/ =F,/ z z z/ F,/!<)!!p! D2 | %12
 z =F, (3D =C _B, B,3/2 =A,/ | ^G,2 z2 z2 | z6 | z6 | z6 | z6 | z6 | z6 | z2 z z/ F,/ A, z/ F,/ | %21
 ^B, z/ A,/ ^G, F, ^D2 | z ^G, =B, ^A, G, F, | F,4 ^E, z | z6 | z6 | z6 ||[K:E] z6 | z6 | z6 | z6 | %31
 z6 | z6 | z6 | z6 | z6 | z6 | z6 | z6 | z6 | z6 | z6 | z6 | z6 | z6 | z6 | z6 | z6 | z6 | z6 | %50
 z6 | z6 | z6 | z6 | z6 | z6 | z6 | z6 | z6 | z6 | z6 | z6 | z6 | z6 | z6 | z6 | z6 | z6 | z6 | %69
 z6 | z6 | z6 | z6 | z6 | z6 | z6 | z6 | z6 | z6 | z6 | z6 | z6 | z6 | z6 | z6 | z6 | z6 | z6 | %88
 z6 | z6 | z6 | z6 | z6 | z6 | z6 | z6 | z6 || z6 | z6 | z6 | z6 | z6 | z6 |] %103
V:4
!pp! (.[^D,^G,] .[D,G,]2 .[D,G,]2 .[D,G,] z .[D,G,].[D,G,] z .[D,G,]) z | %1
 z (.[^D,^G,] z z .[D,G,]) z z6 | z12 | %3
 z!pp! ([^D,^G,]2-!>(! [D,G,].[D,G,].[D,G,] z .[D,G,] z .[D,G,]z.[D,G,])!>)! |!ppp! z12 || %5
[M:3/4][K:treble]!pp! (3(.[_E_A].[EA].[EA] (3:2:2.[EA] .[EA]2 (3:2:2.[EA]2 .[EA]- | %6
 (3:2:2.[EA] .[_E_A]2) (3z (.[EA].[EA] (3.[EA].[EA].[EA]) |!p!!pp! (_A6- |!p!!pp! A4-!<(! A!p!_B | %9
!p!!pp! =B!mp!=c-!<)!"^rall."!>(! c4-!>)! |!p!!pp! c) z!pp! (3.[D=F] z z (3.[DF] z z | %11
 (3z z .[D=F] z2 z2 | (3z (.[D=F].[DF]) .[DF] z z2 | %13
!pp! (3(.[^F=B].[FB].[FB] (3.[FB].[FB].[FB] (3.[FB].[FB].[FB]) | %14
 (3(.[FB].[FB].[FB] (3:2:2.[FB] .[FB]2 (3:2:2.[FB]2 .[F-B]) |!p!!pp! B6- |!p!!pp! B4-!<(! B!p!^c | %17
!p!!pp! ^^c!mp!^d-!<)!!>(! d4- |!pp! d6!>)! |!pp! ^d6- | d6 | ^d6- |!pp! d2- d z z2 | z6 | %24
 (3:2:2z!pp! (.[^G=d]2 (3:2:2.[Gd]2 .[Gd]- (3:2:2[Gd] .[G-d]2) |!pp!!pp! (d6- | d2 ^d3 e) || %27
[K:E]!pp! (^ef- f4- | f2 ^^f2 g2- | g2!<(! =a2 ^ab/4a/4^^g/4a/4)!<)! | %30
!mf!!<(! ([=Adc']3 ^b!p!d=d/c/)!<)! |!p! (^a6- |!<(! a3 gB^A/^^G/)!<)! |!p!!>(! (^g6-!>)! | %34
 gfA^A=B^B- |!<(! Bc=d^d- (3de^e- | ef e'd'c'>b!<)! |!>(!{/^abc'} !>!b2 ^a2)!>)!!p! (a2- | %38
"_dim." ^a ^B2 d- (3d^ef |!p! ^^f!<(! g2) g2 (g-!<)! | g!>(! ^A2 c- (3cde!>)! | %41
!p! ^e!<(! f2) f2 (f-!<)! |!p! f!>(! G2 B- (3Bcd!>)! |!pp! (d e3- e)) z |!pp! (d e3- e) z | %45
!pp! (D2 E4- |!p! E2 ^E4- | E2 ^F2 ^^F2) |!pp! ((G3 =E ^A,2) | (G3 E ^A,2) |!p! (G3 E ^A,2) | %51
 (G3 E ^A,2) | (G3 E ^A,2-) | [F,A,][G,B,] =A3 G-) | (G!pp!^E G F3 | G^E G F3 | G^E G F2 =E- | %57
 E^B,DC=C=B,) |!pp! (G3 E ^A,2- | G3 E ^A,2- | =G3 E ^A,2- | =G3 E [F,_B,]2) | (=c4 =d2 | =c4 =de | %64
 =f3 e=d=c- | [Ec-]2 c2 =B2 |!pp! _B4 A2 |!p! [=De-]6) | e6- |!<(! e6!<)! |!pp!!p! a6- | %71
 a2!<(! (!>![Aa-]2 a>g!<)! |!f!!>(! g6-!>)! |"_dim." g2 f4) | [CAc]3 [EA]!p!{/A} (a2- | %75
 a2 !>!a7/2 g/) |!f! (g6- |!>(! g2 f4)!>)! |!f!"_dim." (e4- ed | d4 [C-c]2 | %80
 [C=G=B]2 [B^d]3 [^Ac] |!p! [=A=c]6 | B6) |!p! ([eg]3!p! [Be]!<(! [^^F^A]2 | %84
 [^^F^A][GB] [ce=a][Bg]) (!>!e>d)!<)! |!f!!>(! (!>!d6-!>)! |"_dim." d2 c4) | %87
!p! ([e^g]3 [Be] [^^F^A]2-) |!<(! z2 (!>![ee']7/2 [dd']/)!<)! |!f!!>(! (!>![dd']6- | %90
 [dd']2!>)! [c=gc']4) |!f!"_dim." ([Bb]4- [Bb]>[^A^a]) | ([^A^a]4 (3:2:2[Gg]2 [=G=g] | %93
!p!!<(! [Ff]6!<)! |!mp!!>(! [Gg]2- [Gg]!mp! [^F^f]2!mp! [Gg])!>)! | %95
!p! ([=Adf=a]2-!<(! (3[Adfa]2 [Gcg]2 [Aa]2!<)! |!f!!>(! [cdfac']4 [Bb-]2!>)! || %97
!pp! [Geg]).[G,B,G]!pp! .[G,B,G].[G,B,G].[G,B,G].[G,B,G] | %98
 .[G,=CG].[G,CG] .[G,CG].[G,CG].[G,CG].[G,CG] | z6 | z6 | z6 | z6 |] %103
V:5
 (.B,, .B,,2 .B,,2 .B,, z .B,,.B,, z .B,,) z | z (.[^E,,B,,] z z .[E,,B,,]) z z6 | z12 | %3
 z ([^E,,B,,]2- [E,,B,,].[E,,B,,].[E,,B,,] z .[E,,B,,] z .[E,,B,,]z.[E,,B,,]) | z12 || %5
[M:3/4] (3(.[=F,_C].[F,C].[F,C] (3:2:2.[F,C] .[F,C]2 (3:2:2.[F,C]2 .[F,C]- | %6
 (3:2:2.[F,C] .[=F,_C]2) (3z (.[F,C].[F,C] (3.[F,C].[F,C].[F,C]) | %7
!pp!!ped! (3(.[=F,_C].[F,C].[F,C] (3.[F,C].[F,C].[F,C] (3:2:2.[F,C] .[F,C]2) | %8
!pp! (3:2:2(.[=F,_C]2 .[F,C] (3.[F,C].[F,C].[F,C] (3.[F,C].[F,C].[F,C])!ped-up! | %9
!pp! (3(.[=F,_A,]!ped!.[F,A,].[F,A,] (3.[F,A,].[F,A,].[F,A,]- (3:2:2[F,A,] .[F,A,]2) | %10
 (3(.[=F,_A,]!ped-up!.[F,A,] z (3.[F,A,] z z (3.[F,A,] z z | (3z z .[=F,_A,]) z2 z2 | %12
 (3z (._A,.A,) .A, z z2 | (3(.[^G,D].[G,D].[G,D] (3.[G,D].[G,D].[G,D] (3.[G,D].[G,D].[G,D] | %14
 (3.[^G,D].[G,D].[G,D] (3:2:2.[G,D] .[G,D]2 (3:2:2.[G,D]2 .[G,D]-) | %15
!pp!!ped! (3:2:2.[G,D] .[^G,D]2 (3z (.[G,D].[G,D] (3.[G,D].[G,D][G,D] | %16
!pp! (3:2:2.[^G,D] [G,D]2 (3:2:2.[G,D]2 .[G,D]- (3.[G,D].[G,D].[G,D])!ped-up! | %17
!pp! (3(.[^G,B,]!ped!.[G,B,].[G,B,] (3.[G,B,].[G,B,].[G,B,] (3.[G,B,].[G,B,].[G,B,] | %18
 (3.[^G,B,].[G,B,].[G,B,] (3.[G,B,].[G,B,].[G,B,]- (3:2:2.[G,B,] .[G,B,]2)!ped-up! | %19
 (3(.[=A,^B,].[A,B,].[A,B,] (3:2:2.[A,B,] .[A,B,]2 (3:2:2.[A,B,]2 .[A,B,]-) | %20
 (3:2:2([A,B,] .[A,^B,]2 (3:2:2.[A,B,]2 .[A,B,]- (3[A,B,].[A,B,].[A,B,]) | %21
 [A,^B,]4- (3[A,B,](.[A,B,].[A,B,]) | [^G,=B,]2- [G,B,] z z2 | z6 | %24
 (3:2:2z (.[=C=F]2 (3:2:2.[CF]2 .[CF]- (3:2:2[CF] .[CF]2-) | %25
 (3:2:2([CF] .[=C=F]2 (3:2:2.[CF]2 .[CF]- (3[CF].[CF].[CF] | %26
 (3.[=C=F].[CF].[CF] (3.[CF].[CF].[CF] (3.[CE].[CE].[CE]) || %27
[K:E] (3(.[^C=E].[CE].[CE] (3.[CE].[CE].[CE] (3.[CE].[CE].[CE] | %28
 (3:2:2[CE] [CE]2- (3:2:2[CE] [CE]2- (3[CE].[CE].[CE]) | [CE] [CE]2!<(! [CE]2 [CE]!<)! | %30
!>(! (A,4!>)! ^B,>C | D6 | =B,4- B,>^B,) | ([C=E]6 | [^B,D-]4 [=A,D]2 | [^A,E]6) | (F4- F^E | %37
!>(! (3(.[C=E]).[CE].[CE] (3.[CE].[CE].[CE]!>)!!p! [CE]2) | ([^B,D]4 [B,D]2) | C6 | %40
 [^A,C]4- [A,C]2 | B,6 | ([G,B,]4 [G,B,]2) | [C,F,]4- [C,F,] z | [F,^B,]4- [F,B,] z | [^^F,^A,]6- | %46
 [F,A,]6- | [F,A,]6 | (B,,4 C,2 | B,,4 C,2 | B,,4 C,2 | B,,4 C,2 | B,,4 C,2 | B,,2 E,^E,F,) z | %54
!ppp! [B,,,B,,-]4 ([B,,=E,]2 | D,4 =E,2 | D,4) =G,2 | F,3 E, D,2 | E,4 ^B,,C, | E,4 ^B,,C, | %60
 E,4 =C,2 | E,4 =C,2 | =F,6 | =F,2 A,3 ^G,- | [G,B,][A,=C] =D2 E=F |!<(! (_B,2- [E,B,]2 [=F,_A,]2 | %66
 =G,2 _B,2!<)!!mf! G,2 |!pp! [E,,^G,]) (^A,C=B,)[I:staff -1] (^F[I:staff +1]C | E=D-) [E,-B,D-]4 | %69
 [E,G,D]6 | z (A,,!<(! F,3 =F, | [B,D][CE] (3E,^F,G,!<)! A,C) | %72
!ped! (3:2:2[A,,A,] ([A,^B,^D]2 (3:2:2[A,B,D]2 [A,B,D]- (3[A,B,D].[A,B,D].[A,B,D]!ped-up! | %73
 (3.[A,^B,D].[A,B,D][A,B,D]-!ped! (3[A,B,D].[A,B,D].[A,B,D]!p! .[A,B,D].[A,B,D])!ped-up! | %74
 z!p! A,,(A,>G,!<(! [^B,^D]2- | E,2- (3E,^F,G,!<)! A,C) | %76
!ped! (3:2:2[A,,A,] [A,^B,^D]2 (3:2:2[A,B,D]2 [A,B,D]- (3[A,B,D].[A,B,D].[A,B,D]!ped-up! | %77
 (3:2:2.[A,^B,D] .[A,B,D]2!ped! (3:2:2.[A,B,D]2 .[A,B,D]- (3[A,B,D].[A,B,D].[A,B,D]!ped-up! | %78
!ped! (3:2:2G,, [G,^B,F]2 (3:2:2[G,B,F]2 [G,B,F]- (3[G,B,F]!ped-up!.[G,B,F].[G,B,F] | %79
 (3=G,, .[=G,^A,E].[G,A,E]!ped! (3.[G,A,E].[G,A,E].[G,A,E] (3.[G,A,E].[G,A,E].[G,A,E]!ped-up! | %80
!ped! (3:2:2E,, [E,=G,]2 (3:2:2[E,G,C]2 [E,G,C]- [E,G,C][E,G,C]!ped-up! | %81
!pp!!ped! [B,,,B,,] [B,,D,]/4F,/4[B,,D,]/4F,/4 !///-![B,,F,]2 A,2!ped-up! | !///-![B,,F,]3 A,3 | %83
 z E,- C3 =C | B,2-!<(! (3B,^CD EG!<)! | %85
!ped! (3:2:2[E,,E,] [E,=G,^A,C]2 (3:2:2[E,G,A,C]2 [E,G,A,C]- (3[E,G,A,C](.[E,G,A,C].[E,G,A,C]!ped-up! | %86
 (3[E,=G,^A,C].[E,G,A,C].[E,G,A,C]-!ped! (3[E,G,A,C].[E,G,A,C].[E,G,A,C]!p! .[E,G,A,C].[E,G,A,C])!ped-up! | %87
 z (^G,E>D C=C | B,2-!<(! (3B,^CD EG)!<)! | %89
!ped! (3:2:2[^A,C=G] [A,CG]2 (3:2:2[A,CG]2 [A,CG]- (3[A,CG][A,CG][A,CG]!ped-up! | %90
 (3:2:2[^A,C=G] [A,CG]2!ped! (3:2:2[A,CG]2 [A,CG]- (3[A,CG][A,CG][A,CG]!ped-up! | %91
 (3:2:2[D,,D,] ([D,^^F,C]2 (3:2:2[D,F,C]2 [D,F,C]- (3[D,F,C].[D,F,C].[D,F,C]) | %92
 (3[=D,,=D,] (.[D,^E,B,].[D,E,B,] (3.[D,E,B,].[D,E,B,].[D,E,B,] (3.[D,E,B,].[D,E,B,].[D,E,B,]) | %93
 (3:2:2[C,,C,] [C,=E,^A,]2- (3:2:2[C,E,A,] [C,E,A,]2- (3:2:2[C,E,A,] [C,E,A,]2 | %94
 [=C,,=C,]!p! !///-![C,D,]3/2!p! A,3/2!p! !///-![C,D,]!p! A, | %95
!ped!{/B,,,} (B,,/D,/F,/A,/ (6:4:6B,/D/F/D/B,/A,/ (6:4:6F,/D,/B,,/A,,/F,,/D,,/)!ped-up! | %96
!ped! (B,,,/B,,/D,/F,/ A,/B,/D/F/) A!ped-up! z ||!p! B,,3!p! C,!p! D,2- | D,!p!E, F,2 ^^F,G, | %99
 G,3 E, ^C2- | CB,G,E, B,,>A,, | (A,,2 G,,4-) | G,,6 |] %103
V:6
 ^E,,12- | E,, x11 | x12 | x12 | x12 ||[M:3/4] x6 | x6 | x6 | x6 | _B,,6- | B,,6- | B,, z x4 | x6 | %13
 x6 | x6 | x6 | x6 | ^C,6- | ^C,6 | C,6- | C,6 | C,6- | C,4- C, z | x6 | x6 | x6 | x6 || %27
[K:E] ^F,6- | F,6- | F,6 | [F,=A,D]6 | F,6 | [F,^E]6 | F,6- | F,6- | F,6 | [F,B,D]6 | =G,6 | (F,6 | %39
 ^E,6 | =E,6 | D,6 | C,6 | F,,6) | x6 | [D,,C,]6- | [D,,C,]6- | [D,,C,]6 | E,,6- | E,,6 | E,,6- | %51
 E,,6 | E,,6- | E,,4 x2 | x6 | B,,,4 B,,2 | B,,,4 B,,2 | [B,,,B,,]6 | (^C,,4 F,,2 | ^C,,4 F,,2 | %60
 C,,4 ^F,,=G,, | =C,,4 ^F,,=G,, | =C,,2) (=C,2 ^G,A, | =C,4 B,2- | =C,6 | =C,6) | =C,4 !>!_D,2 | %67
 x2 [E,G,]4- | [E,G,]2 x4 | x6 | x6 | E,2- x4 | x6 | x6 | x4 F,=F, | x6 | x6 | x6 | x6 | x6 | x6 | %81
 x6 | x6 | E,,6 | E,4 z2 | x6 | x6 | [E,,E,]6- | [E,,E,]4 z2 | E,6- | E,2 E,4 | x6 | x6 | x6 | x6 | %95
 x6 | x6 || x6 | x6 | x6 | x6 | x6 | x6 |] %103
V:7
 x12 | x12 | x12 | x12 | x12 ||[M:3/4][K:treble] x6 | x6 | (3(._E.E.E (3.E.E.E (3:2:2.E .E2) | %8
 (3:2:2(._E2 .E (3.E.E.E (3.E.E.E) | %9
 (3(.[D=F].[DF]!pp!.[DF] (3.[DF].[DF].[DF]- (3:2:2[DF] .[DF]2) | (3.[D=F].[DF] z x4 | x6 | x6 | %13
 x6 | x6 | (3:2:2.F .F2 (3z (.F.F (3.F.FF | (3:2:2F F2 (3:2:2.F2 .F- (3.F.F.F) | %17
 (3(.[^E^G].[EG]!pp!.[EG] (3.[EG].[EG].[EG] (3.[EG].[EG].[EG] | %18
 (3.[^E^G].[EG].[EG] (3.[EG].[EG].[EG]- (3:2:2[EG] .[EG]2) | %19
 (3(.F.F.F (3:2:2.F .F2 (3:2:2.F2 .F-) | (3:2:2(F .F2 (3:2:2.F2 .F- (3F.F.F) | F4- (3F(.F.F) | %22
 ^E2- E x3 | x6 | x6 | (3:2:2(G .^G2 (3:2:2.G2 .G-!<(! (3G.G.G | %26
 (3.^G!<(!.G.G (3.G.G.G (3.A.A!<)!.A)!<)! ||[K:E] (3(.^A.A.A (3.A.A.A (3.A.A.A | %28
 (3:2:2.^A .A2- (3:2:2A .A2- (3A.A.A) | ^A A2 ^A2 A | x6 | ^B6 | =B3 x3 | ^A6 | =A6 | G4 =G2 | x6 | %37
 (3z (.[ce].[ce] (3.[ce].[ce].[ce]) z2 | ^A4- A=A | [Gc]6 | G4- G=G | [FB]6 | F4- F^E | %43
 [=E^A]4- [EA] x | =A4- A x | x6 | x6 | x6 | G,4 ^^F,2 | G,4 ^^F,2 | G,4 ^^F,2 | G,4 ^^F,2 | %52
 G,4 ^^F,2- | x2 C2 D[G,E] | [=A,D]4 ^A,2 | =A,4 ^A,2 | =A,4 ^A,2 | x6 | ^A,4 E,2 | A,4 E,2 | %60
 A,4 E,2 | _B,6 | (=A3 =F =B,2) | A3 =F- F2 | x2 _B3 A- | A^F A =G2 =F- | F!<(!^D =F E2 ^D!<)! | %67
 x6 | x2 (A^EGF) | (=d^AcB)(fe) | c3 A[I:staff +1] [^B,^D]2- | x2[I:staff -1] [=df][ce-] (3ecA | %72
 !>![F^B^d]6- | [FBd]4- [FBd] z | x6 | %75
[I:staff +1] (3[B,D][CE]!<(![I:staff -1]A (3[fa][eg][=df]- (3[df][ce]A!<)! | [F^B^d]6- | [FBd]6 | %78
 [G^B]4 A2 | ^A6 | x6 | z2 (D2- [=CD]2 | [^CE]2 [DF]4) | G4 E2- | E2 x2 (3eBE | [=G^A]6- | [GA]6 | %87
 ^G4 E2- | (3[EFA][GB]e [ac'][gb]- (3[gb][eg][Be] | [=g^a]6- | [ga]6 | c2 d2 e2 | ^e6 | %93
 [^A=e]4 [^^F^^f]2 | d6 | x6 | x6 || x6 | x6 | x6 | x6 | x6 | x6 |] %103
V:8
 x12 | x12 | x12 | x12 | x12 ||[M:3/4] x6 | x6 | x6 | x6 | x6 | x6 | x6 | x6 | x6 | x6 | x6 | x6 | %17
 x6 | x6 | x6 | x6 | x6 | x6 | x6 | x6 | x6 | x6 ||[K:E] x6 | x6 | x6 | x6 | x6 | x6 | x6 | x6 | %35
 x6 | x6 | x6 | x6 | x6 | x6 | x6 | x6 | x6 | x6 | x6 | x6 | x6 | x6 | x6 | x6 | x6 | x6 | x6 | %54
 x6 | x6 | x6 | x6 | x6 | x6 | x6 | x6 | x6 | x6 | x2 =F,^F,=G,A, | x6 | x6 | x6 | x6 | x6 | x6 | %71
 x6 | x6 | x6 | x6 | x6 | x6 | x6 | x6 | x6 | x6 | x6 | x6 | x2 E,4- | x6 | x6 | x6 | x6 | x6 | %89
 x6 | x6 | x6 | x6 | x6 | x6 | x6 | x6 || x6 | x6 | x6 | x6 | x6 | x6 |] %103
V:9
 x12 | x12 | x12 | x12 | x12 ||[M:3/4][K:treble] x6 | x6 | x6 | x6 | x6 | x6 | x6 | x6 | x6 | x6 | %15
 x6 | x6 | x6 | x6 | x6 | x6 | x6 | x6 | x6 | x6 | x6 | x6 ||[K:E] x6 | x6 | x6 | x6 | x6 | x6 | %33
 x6 | x6 | x6 | x6 | x6 | x6 | x6 | x6 | x6 | x6 | x6 | x6 | x6 | x6 | x6 | x6 | x6 | x6 | x6 | %52
 x6 | x6 | x6 | x6 | x6 | x6 | x6 | x6 | x6 | x6 | x6 | x6 | x6 | x6 | x6 | x6 | x6 | x6 | x6 | %71
 x6 | x6 | x6 | x6 | x6 | x6 | x6 | x6 | x6 | x6 | x6 | x6 | x6 | x6 | x6 | x6 | x6 | x6 | x6 | %90
 x6 | x6 | x6 | x6 | x6 | x6 | x6 || b x5 | x6 | x6 | x6 | x6 | x6 |] %103

